img/logo.svg

<svg width="143" height="59" viewBox="0 0 143 59" fill="none" xmlns="http://www.w3.org/2000/svg">
<path d="M0 29.5C0 13.2076 13.2076 0 29.5 0H137.51C139.377 0 140.226 2.33066 138.796 3.53134L116.999 21.8433C112.242 25.8395 112.242 33.1605 116.999 37.1567L138.796 55.4687C140.226 56.6693 139.377 59 137.51 59H29.5C13.2076 59 0 45.7924 0 29.5Z" fill="#FF1640"/>
<path d="M18.875 19.8H26.475L31.45 37H25.575L24.925 33.7H20.475L19.75 37H14.125L18.875 19.8ZM24.325 30.625L22.7 23.1L21 30.625H24.325ZM33.1055 19.8H38.5055V33.2H44.4805V37H33.1055V19.8ZM46.5576 19.8H52.7576C55.3243 19.8 57.3076 20.3 58.7076 21.3C60.1243 22.3 60.8326 23.7 60.8326 25.5C60.8326 26.6333 60.4826 27.625 59.7826 28.475C59.0993 29.325 58.1576 29.9833 56.9576 30.45C55.7743 30.9 54.4576 31.125 53.0076 31.125H51.9576V37H46.5576V19.8ZM53.0326 27.65C53.916 27.65 54.5993 27.4667 55.0826 27.1C55.566 26.7333 55.8076 26.2 55.8076 25.5C55.8076 24.8 55.566 24.275 55.0826 23.925C54.616 23.575 53.9326 23.4 53.0326 23.4H51.9576V27.6C52.291 27.6333 52.6493 27.65 53.0326 27.65ZM62.793 19.8H68.568V37H62.793V19.8ZM71.8262 19.8H76.8512L83.7012 29.075V19.8H88.1762V37H83.1762L76.2762 28.05V37H71.8262V19.8ZM91.4307 19.8H103.506V23.6H97.5057V26.725H102.981V29.875H97.5057V33.2H103.506V37H91.4307V19.8Z" fill="white"/>
</svg>

<svg width="143" height="59" fill="none" xmlns="http://www.w3.org/2000/svg"><path d="M0 29.5C0 13.208 13.208 0 29.5 0h108.01c1.867 0 2.716 2.33 1.286 3.531l-21.797 18.312c-4.757 3.997-4.757 11.317 0 15.314l21.797 18.312c1.43 1.2.581 3.531-1.286 3.531H29.5C13.208 59 0 45.792 0 29.5Z" fill="#FF1640"/><path d="M18.875 19.8h7.6L31.45 37h-5.875l-.65-3.3h-4.45L19.75 37h-5.625l4.75-17.2Zm5.45 10.825L22.7 23.1 21 30.625h3.325Zm8.78-10.825h5.4v13.4h5.975V37H33.106V19.8Zm13.453 0h6.2c2.566 0 4.55.5 5.95 1.5 1.416 1 2.125 2.4 2.125 4.2 0 1.133-.35 2.125-1.05 2.975-.684.85-1.625 1.508-2.825 1.975-1.184.45-2.5.675-3.95.675h-1.05V37h-5.4V19.8Zm6.475 7.85c.883 0 1.566-.183 2.05-.55.483-.367.725-.9.725-1.6 0-.7-.242-1.225-.725-1.575-.467-.35-1.15-.525-2.05-.525h-1.075v4.2c.333.033.691.05 1.075.05Zm9.76-7.85h5.775V37h-5.775V19.8Zm9.033 0h5.025l6.85 9.275V19.8h4.475V37h-5l-6.9-8.95V37h-4.45V19.8Zm19.605 0h12.075v3.8h-6v3.125h5.475v3.15h-5.475V33.2h6V37H91.431V19.8Z" fill="#fff"/></svg>
